img/cart/icons/percent.svg

<svg width="18" height="18" viewBox="0 0 18 18" fill="none" xmlns="http://www.w3.org/2000/svg">
<circle cx="9" cy="9" r="9" fill="#23A1D1"/>
<path d="M7.98072 7.89807C7.53994 8.32966 6.98898 8.54545 6.32782 8.54545C5.66667 8.54545 5.11111 8.32507 4.66116 7.8843C4.22039 7.44353 4 6.90634 4 6.27273C4 5.63912 4.22039 5.10193 4.66116 4.66116C5.11111 4.22039 5.66667 4 6.32782 4C6.98898 4 7.53994 4.22039 7.98072 4.66116C8.42149 5.09275 8.64187 5.62994 8.64187 6.27273C8.64187 6.91552 8.42149 7.4573 7.98072 7.89807ZM4.97796 12.3747L11.259 5.39118L12.0992 5.8595L5.80441 12.8567L4.97796 12.3747ZM5.69421 6.90634C5.8595 7.07163 6.06612 7.15427 6.31405 7.15427C6.56198 7.15427 6.7686 7.07163 6.93388 6.90634C7.09917 6.73186 7.18182 6.52066 7.18182 6.27273C7.18182 6.02479 7.09917 5.81818 6.93388 5.65289C6.7686 5.4876 6.56198 5.40496 6.31405 5.40496C6.06612 5.40496 5.8595 5.4876 5.69421 5.65289C5.53811 5.81818 5.46006 6.02479 5.46006 6.27273C5.46006 6.52066 5.53811 6.73186 5.69421 6.90634ZM12.6364 13.3388C12.1956 13.7796 11.6446 14 10.9835 14C10.3223 14 9.77135 13.7796 9.33058 13.3388C8.88981 12.8981 8.66942 12.3609 8.66942 11.7273C8.66942 11.0937 8.88981 10.5565 9.33058 10.1157C9.77135 9.67493 10.3223 9.45455 10.9835 9.45455C11.6446 9.45455 12.1956 9.67493 12.6364 10.1157C13.0771 10.5565 13.2975 11.0937 13.2975 11.7273C13.2975 12.3609 13.0771 12.8981 12.6364 13.3388ZM10.3636 12.3609C10.5289 12.5262 10.7355 12.6088 10.9835 12.6088C11.2314 12.6088 11.4334 12.5216 11.5895 12.3471C11.7548 12.1726 11.8375 11.966 11.8375 11.7273C11.8375 11.4793 11.7548 11.2727 11.5895 11.1074C11.4334 10.933 11.2314 10.8457 10.9835 10.8457C10.7355 10.8457 10.5289 10.933 10.3636 11.1074C10.2075 11.2727 10.1295 11.4793 10.1295 11.7273C10.1295 11.9752 10.2075 12.1864 10.3636 12.3609Z" fill="white"/>
</svg>

<svg width="18" height="18" fill="none" xmlns="http://www.w3.org/2000/svg"><circle cx="9" cy="9" r="9" fill="#23A1D1"/><path d="M7.98 7.898c-.44.432-.991.647-1.652.647-.661 0-1.217-.22-1.667-.66A2.193 2.193 0 0 1 4 6.272c0-.634.22-1.171.661-1.612.45-.439 1.006-.66 1.667-.66s1.212.22 1.653.661c.44.432.66.969.66 1.612 0 .643-.22 1.184-.66 1.625Zm-3.002 4.477 6.281-6.984.84.468-6.295 6.998-.826-.482Zm.716-5.469a.841.841 0 0 0 .62.248.84.84 0 0 0 .62-.248.888.888 0 0 0 .248-.633.841.841 0 0 0-.248-.62.84.84 0 0 0-.62-.248.841.841 0 0 0-.62.248.867.867 0 0 0-.234.62c0 .248.078.459.234.633Zm6.942 6.433c-.44.44-.991.661-1.652.661-.662 0-1.213-.22-1.653-.661a2.193 2.193 0 0 1-.662-1.612c0-.633.22-1.17.662-1.611.44-.441.991-.661 1.652-.661.662 0 1.213.22 1.653.66.441.441.662.979.662 1.612a2.19 2.19 0 0 1-.662 1.612Zm-2.272-.978a.841.841 0 0 0 .62.248c.247 0 .45-.087.605-.262a.871.871 0 0 0 .248-.62.841.841 0 0 0-.248-.62.776.776 0 0 0-.606-.261.819.819 0 0 0-.62.261.868.868 0 0 0-.233.62c0 .248.077.46.234.634Z" fill="#fff"/></svg>
